X: 16041
T: Green Cottage, The
R: polka
M: 2/4
K: Edorian
B>A|:GE ED|B,E E>F|GF ED|GA B/d/B/A/|
GE ED|B,E E2|B>A GF|1 E2 B>A:|2 E3 A||
|:Be ef|ed BA|Be df|e3f|
g2 f2|ed BA|BE E/F/G/A/|1 B3 A:|2 B4||

